images/icons/I_E_icon.svg

<svg width="55" height="55" viewBox="0 0 55 55" fill="none" xmlns="http://www.w3.org/2000/svg">
<rect width="55" height="55" rx="10" fill="#845CDA"/>
<path d="M45.016 18.8156L33.517 14.3966C33.2382 14.2895 32.9261 14.4304 32.8198 14.7112C32.7135 14.9922 32.8534 15.3068 33.1322 15.4139L43.3076 19.3243L36.2636 22.0316L27.4046 17.9884C27.1327 17.8642 26.8128 17.9859 26.6899 18.2597C26.5667 18.5337 26.6874 18.8561 26.959 18.9803L34.8417 22.578L27.1818 25.5216L11.0561 19.3243L27.1818 13.127L31.1558 14.6544C31.434 14.7612 31.7464 14.6206 31.8529 14.3395C31.9592 14.0587 31.8194 13.7441 31.5406 13.637L27.3744 12.0358C27.2503 11.9882 27.1133 11.9879 26.9893 12.0358L9.34762 18.8156C9.13844 18.8961 9 19.0986 9 19.3243V21.8104C9 22.0361 9.13844 22.2385 9.34762 22.3191L14.8566 24.436V26.3225C14.8566 26.6232 15.0982 26.867 15.3965 26.867C15.695 26.867 15.9366 26.6232 15.9366 26.3225V24.8513L26.9893 29.0989C27.0514 29.1227 27.1166 29.1347 27.1818 29.1347C27.247 29.1347 27.3122 29.1227 27.3744 29.0989L35.7057 25.8972V34.5126C33.09 35.8966 30.157 36.6383 27.1818 36.6383C23.1213 36.6383 19.1385 35.2585 15.9366 32.7475V28.5002C15.9366 28.1995 15.695 27.9557 15.3965 27.9557C15.0982 27.9557 14.8566 28.1995 14.8566 28.5002V33.0112C14.8566 33.1765 14.931 33.3328 15.0588 33.436C18.4854 36.2031 22.7909 37.7269 27.1818 37.7269C30.1431 37.7269 33.0651 37.0329 35.7057 35.7328V37.9361C34.8354 38.1758 34.1936 38.9792 34.1936 39.9314C34.1936 41.0718 35.1142 42 36.2455 42C37.3772 42 38.2977 41.0718 38.2977 39.9314C38.2977 38.9792 37.656 38.1758 36.7857 37.9361V35.1578C37.666 34.653 38.5094 34.0786 39.3051 33.436C39.433 33.3328 39.5076 33.1765 39.5076 33.0112V24.4357L45.016 22.3188C45.2252 22.2385 45.3636 22.0361 45.3636 21.8101V19.3243C45.3636 19.0986 45.2252 18.8961 45.016 18.8156ZM37.2177 39.9314C37.2177 40.4714 36.7815 40.911 36.2455 40.911C35.7098 40.911 35.2737 40.4714 35.2737 39.9314C35.2737 39.3911 35.7098 38.9515 36.2455 38.9515C36.7815 38.9515 37.2177 39.3911 37.2177 39.9314ZM10.08 20.1146L26.6417 26.4794V27.7999L10.08 21.4351V20.1146ZM27.722 27.7999V26.4794L35.7057 23.4111V24.7319L27.722 27.7999ZM38.4273 32.7472C37.9004 33.1605 37.3519 33.5425 36.7857 33.8932V25.4819L38.4273 24.851V32.7472ZM36.7857 24.3166V22.9961L44.2836 20.1146V21.4351L36.7857 24.3166Z" fill="white"/>
</svg>

<?xml version="1.0" encoding="utf-8"?>
<!-- Generator: Adobe Illustrator 24.0.2, SVG Export Plug-In . SVG Version: 6.00 Build 0)  -->
<svg version="1.1" id="Layer_1" xmlns="http://www.w3.org/2000/svg" xmlns:xlink="http://www.w3.org/1999/xlink" x="0px" y="0px"
	 viewBox="0 0 55 55" style="enable-background:new 0 0 55 55;" xml:space="preserve">
<style type="text/css">
	.st0{fill:#845CDA;}
	.st1{fill:#FFFFFF;}
</style>
<path class="st0" d="M10,0h35c5.5,0,10,4.5,10,10v35c0,5.5-4.5,10-10,10H10C4.5,55,0,50.5,0,45V10C0,4.5,4.5,0,10,0z"/>
<path class="st1" d="M45,18.8l-11.5-4.4c-0.3-0.1-0.6,0-0.7,0.3c-0.1,0.3,0,0.6,0.3,0.7l10.2,3.9l-7,2.7l-8.9-4
	c-0.3-0.1-0.6,0-0.7,0.3c-0.1,0.3,0,0.6,0.3,0.7l7.9,3.6l-7.7,2.9l-16.1-6.2l16.1-6.2l4,1.5c0.3,0.1,0.6,0,0.7-0.3
	c0.1-0.3,0-0.6-0.3-0.7L27.4,12c-0.1,0-0.3,0-0.4,0L9.3,18.8C9.1,18.9,9,19.1,9,19.3v2.5c0,0.2,0.1,0.4,0.3,0.5l5.5,2.1v1.9
	c0,0.3,0.2,0.5,0.5,0.5c0.3,0,0.5-0.2,0.5-0.5v-1.5L27,29.1c0.1,0,0.1,0,0.2,0c0.1,0,0.1,0,0.2,0l8.3-3.2v8.6
	c-2.6,1.4-5.5,2.1-8.5,2.1c-4.1,0-8-1.4-11.2-3.9v-4.2c0-0.3-0.2-0.5-0.5-0.5c-0.3,0-0.5,0.2-0.5,0.5V33c0,0.2,0.1,0.3,0.2,0.4
	c3.4,2.8,7.7,4.3,12.1,4.3c3,0,5.9-0.7,8.5-2v2.2c-0.9,0.2-1.5,1-1.5,2c0,1.1,0.9,2.1,2.1,2.1c1.1,0,2.1-0.9,2.1-2.1
	c0-1-0.6-1.8-1.5-2v-2.8c0.9-0.5,1.7-1.1,2.5-1.7c0.1-0.1,0.2-0.3,0.2-0.4v-8.6l5.5-2.1c0.2-0.1,0.3-0.3,0.3-0.5v-2.5
	C45.4,19.1,45.2,18.9,45,18.8z M37.2,39.9c0,0.5-0.4,1-1,1c-0.5,0-1-0.4-1-1c0-0.5,0.4-1,1-1C36.8,39,37.2,39.4,37.2,39.9z
	 M10.1,20.1l16.6,6.4v1.3l-16.6-6.4V20.1z M27.7,27.8v-1.3l8-3.1v1.3L27.7,27.8z M38.4,32.7c-0.5,0.4-1.1,0.8-1.6,1.1v-8.4l1.6-0.6
	V32.7z M36.8,24.3V23l7.5-2.9v1.3L36.8,24.3z"/>
</svg>
